X: 40438
T: Tom Moran's Fancy
R: strathspey
M: 4/4
K: Dmajor
|:F/|A2 B>G A>F (3GFE|D>FA>d B>E E2|(3AAA B>G A>F (3GFE|D>F (3GFE F>DD3/2:|
|:A/|d>af>e d>af>e|d>af>e d>AA>g|f>de>c d>BA>G|(3FGA E>G F>DD3/2:|

